src/assets/duotone/DirectboxSend.svg

<svg width="24" height="24" viewBox="0 0 24 24"  xmlns="http://www.w3.org/2000/svg">
<path opacity="0.4" d="M14.79 6H9.21004C4.79004 6 4.79004 8.35 4.79004 10.42V12.21C4.79004 12.43 4.89004 12.63 5.06004 12.76C5.23004 12.89 5.46004 12.94 5.67004 12.88C6.12004 12.76 6.68004 12.7 7.35004 12.7C8.02004 12.7 8.16004 12.78 8.56004 13.08L9.47004 14.04C10.12 14.74 11.05 15.14 12.01 15.14C12.97 15.14 13.89 14.74 14.55 14.04L15.46 13.08C15.86 12.78 16 12.7 16.67 12.7C17.34 12.7 17.9 12.76 18.35 12.88C18.56 12.94 18.78 12.89 18.96 12.76C19.13 12.63 19.23 12.42 19.23 12.21V10.42C19.21 8.35 19.21 6 14.79 6Z" />
<path d="M14.2799 4.95C14.0199 5.21 13.5899 5.21 13.3299 4.95L12.6799 4.3V9.07C12.6799 9.44 12.3799 9.75 11.9999 9.75C11.6199 9.75 11.3199 9.45 11.3199 9.07V4.3L10.6699 4.95C10.4099 5.21 9.9799 5.21 9.7199 4.95C9.4599 4.69 9.4599 4.26 9.7199 4L11.5199 2.2C11.5299 2.19 11.5299 2.19 11.5399 2.19C11.5999 2.14 11.6599 2.09 11.7399 2.06C11.8299 2.02 11.9099 2 11.9999 2C12.0899 2 12.1699 2.02 12.2599 2.05C12.3399 2.08 12.4199 2.13 12.4799 2.2L14.2799 4C14.5399 4.26 14.5399 4.69 14.2799 4.95Z" />
<path d="M18.6902 11.5298C18.1202 11.3798 17.4502 11.2998 16.6502 11.2998C15.5402 11.2998 15.1302 11.5698 14.5602 11.9998C14.5302 12.0198 14.5002 12.0498 14.4702 12.0798L13.5202 13.0898C12.7202 13.9298 11.2802 13.9398 10.4802 13.0798L9.53018 12.0798C9.50017 12.0498 9.47018 12.0198 9.44018 11.9998C8.87017 11.5698 8.46018 11.2998 7.35018 11.2998C6.55018 11.2998 5.88018 11.3798 5.31018 11.5298C2.93018 12.1698 2.93018 14.0598 2.93018 15.7198V16.6498C2.93018 19.1598 2.93018 21.9998 8.28018 21.9998H15.7202C19.2702 21.9998 21.0702 20.1998 21.0702 16.6498V15.7198C21.0702 14.0598 21.0702 12.1698 18.6902 11.5298ZM14.3302 18.3998H9.67018C9.29018 18.3998 8.98018 18.0898 8.98018 17.6998C8.98018 17.3098 9.29018 16.9998 9.67018 16.9998H14.3302C14.7102 16.9998 15.0202 17.3098 15.0202 17.6998C15.0202 18.0898 14.7102 18.3998 14.3302 18.3998Z" />
<path opacity="0.4" d="M15.02 17.7C15.02 18.09 14.71 18.4 14.33 18.4H9.66998C9.28998 18.4 8.97998 18.09 8.97998 17.7C8.97998 17.31 9.28998 17 9.66998 17H14.33C14.71 17 15.02 17.31 15.02 17.7Z" />
</svg>

<?xml version="1.0" encoding="UTF-8"?>
<svg width="24" height="24" viewBox="0 0 24 24" xmlns="http://www.w3.org/2000/svg">
 <path d="m14.79 6h-5.58c-4.42 0-4.42 2.35-4.42 4.42v1.79c0 0.22 0.1 0.42 0.27 0.55s0.4 0.18 0.61 0.12c0.45-0.12 1.01-0.18 1.68-0.18s0.81 0.08 1.21 0.38l0.91 0.96c0.64996 0.7 1.58 1.1 2.54 1.1s1.88-0.4 2.54-1.1l0.91-0.96c0.4-0.3 0.54-0.38 1.21-0.38s1.23 0.06 1.68 0.18c0.21 0.06 0.43 0.01 0.61-0.12 0.17-0.13 0.27-0.34 0.27-0.55v-1.79c-0.02-2.07-0.02-4.42-4.44-4.42z" opacity=".4"/>
 <path d="m14.28 4.95c-0.26 0.26-0.69 0.26-0.95 0l-0.65-0.65v4.77c0 0.37-0.3 0.68-0.68 0.68s-0.68-0.3-0.68-0.68v-4.77l-0.65 0.65c-0.26 0.26-0.69 0.26-0.95 0s-0.26-0.69 0-0.95l1.8-1.8c0.01-0.01 0.01-0.01 0.02-0.01 0.06-0.05 0.12-0.1 0.2-0.13 0.09-0.04 0.17-0.06 0.26-0.06s0.17 0.02 0.26 0.05c0.08 0.03 0.16 0.08 0.22 0.15l1.8 1.8c0.26 0.26 0.26 0.69 0 0.95z"/>
 <path d="m18.69 11.53c-0.57-0.15-1.24-0.23-2.04-0.23-1.11 0-1.52 0.27-2.09 0.7-0.03 0.02-0.06 0.05-0.09 0.08l-0.95 1.01c-0.8 0.84-2.24 0.85-3.04-0.01l-0.95002-1c-0.03001-0.03-0.06-0.06-0.09-0.08-0.57001-0.43-0.98-0.7-2.09-0.7-0.8 0-1.47 0.08-2.04 0.23-2.38 0.64-2.38 2.53-2.38 4.19v0.93c0 2.51 0 5.35 5.35 5.35h7.44c3.55 0 5.35-1.8 5.35-5.35v-0.93c0-1.66 0-3.55-2.38-4.19zm-4.36 6.87h-4.66c-0.38 0-0.69-0.31-0.69-0.7s0.31-0.7 0.69-0.7h4.66c0.38 0 0.69 0.31 0.69 0.7s-0.31 0.7-0.69 0.7z"/>
 <path d="m15.02 17.7c0 0.39-0.31 0.7-0.69 0.7h-4.66c-0.38 0-0.69-0.31-0.69-0.7s0.31-0.7 0.69-0.7h4.66c0.38 0 0.69 0.31 0.69 0.7z" opacity=".4"/>
</svg>
